svg-color/disc-alert-red.svg

<?xml version="1.0" encoding="UTF-8" standalone="no"?>
<svg
   id="mdi-disc-alert"
   viewBox="0 0 24 24"
   version="1.1"
   sodipodi:docname="disc-alert-red.svg"
   inkscape:version="1.4 (e7c3feb1, 2024-10-09)"
   xmlns:inkscape="http://www.inkscape.org/namespaces/inkscape"
   xmlns:sodipodi="http://sodipodi.sourceforge.net/DTD/sodipodi-0.dtd"
   xmlns="http://www.w3.org/2000/svg"
   xmlns:svg="http://www.w3.org/2000/svg">
  <defs
     id="defs1" />
  <sodipodi:namedview
     id="namedview1"
     pagecolor="#ffffff"
     bordercolor="#000000"
     borderopacity="0.25"
     inkscape:showpageshadow="2"
     inkscape:pageopacity="0.0"
     inkscape:pagecheckerboard="0"
     inkscape:deskcolor="#d1d1d1"
     inkscape:zoom="11.4"
     inkscape:cx="11.885965"
     inkscape:cy="11.885965"
     inkscape:window-width="1448"
     inkscape:window-height="804"
     inkscape:window-x="0"
     inkscape:window-y="38"
     inkscape:window-maximized="0"
     inkscape:current-layer="mdi-disc-alert" />
  <path
     d="m 20,17 h 2 v -2 h -2 z"
     id="path4" />
  <path
     d="m 20,13 h 2 V 7 h -2"
     id="path3" />
  <path
     d="m 10,4 c -4.4,0 -8,3.6 -8,8 0,4.4 3.6,8 8,8 4.4,0 8,-3.6 8,-8 0,-4.4 -3.6,-8 -8,-8"
     id="path2"
     style="fill:#ff0000" />
  <path
     d="m 10,14 c -1.1,0 -2,-0.9 -2,-2 0,-1.1 0.9,-2 2,-2 1.1,0 2,0.9 2,2 0,1.1 -0.9,2 -2,2"
     id="path1"
     style="fill:#f9f9f9" />
</svg>

<?xml version="1.0" encoding="UTF-8" standalone="no"?>
<svg
   id="mdi-disc-alert"
   viewBox="0 0 24 24"
   version="1.1"
   sodipodi:docname="disc-alert-red.svg"
   inkscape:version="1.4 (e7c3feb1, 2024-10-09)"
   xmlns:inkscape="http://www.inkscape.org/namespaces/inkscape"
   xmlns:sodipodi="http://sodipodi.sourceforge.net/DTD/sodipodi-0.dtd"
   xmlns="http://www.w3.org/2000/svg"
   xmlns:svg="http://www.w3.org/2000/svg">
  <defs
     id="defs1" />
  <sodipodi:namedview
     id="namedview1"
     pagecolor="#ffffff"
     bordercolor="#000000"
     borderopacity="0.25"
     inkscape:showpageshadow="2"
     inkscape:pageopacity="0.0"
     inkscape:pagecheckerboard="0"
     inkscape:deskcolor="#d1d1d1"
     inkscape:zoom="11.4"
     inkscape:cx="11.929825"
     inkscape:cy="11.885965"
     inkscape:window-width="1448"
     inkscape:window-height="804"
     inkscape:window-x="0"
     inkscape:window-y="38"
     inkscape:window-maximized="0"
     inkscape:current-layer="mdi-disc-alert" />
  <path
     id="path3"
     d="m 20,13 h 2 V 7 h -2 m 0,10 h 2 v -2 h -2 z" />
  <path
     id="path2"
     style="fill:#ff0000"
     d="M 10 4 C 5.6 4 2 7.6 2 12 C 2 16.4 5.6 20 10 20 C 14.4 20 18 16.4 18 12 C 18 7.6 14.4 4 10 4 z M 10 10 C 11.1 10 12 10.9 12 12 C 12 13.1 11.1 14 10 14 C 8.9 14 8 13.1 8 12 C 8 10.9 8.9 10 10 10 z " />
</svg>
